X:640
T:
S:Ur notboken i Gotlands fornsal.
R:kadrilj
O:Gotland
M:2/4
L:1/16
K:G
G2BG D2F2|G2BG D2F2|G2A2B2c2|d^cde d2f2|
g2bg d2f2|g2bg d2f2|g2de dcBA|G2G2G2 z2:|
|:A2B2c2A2|Bdef g2B2|A2c2c2A2|BdBd g2B2|
e6 g2|d6 B2|d2c2B2A2|G4 z4:|
K:Em
|:e2B2e2g2|f4 b4|a2g2f2e2|e^dfd B2B2|
e2B2e2g2|f4 b4|b2B2 B2^c^d|e4 z4:|
K:G
|:d2ef gfed|c2c2 A4|f2d2a2f2|g2bg d2d2|
d2ef gfed|c2c2 A4|fdfd c'dfd|g4 z4:|

